X: 1
T:Dever the Dancer
T:Humours of Whiskey, The
R:slip jig
H:Two versions included. See also #37.
Z:id:hn-slipjig-7
M:9/8
K:Edor
BEE BEF G2A|BEE BAG FGA|BEE BEF G2A|Bcd ABG FED:|
ded =cAF ~G3|Add def gfe|ded =cAF G2A|B^cd ABG FED|
~d3 =cAF ~G3|Add def ~g3|afd efe d2A|Bcd ABG FED||
"Version 2:"
BEE BEE G2A|BEE BEE FGA|BEE BEE G2A|Bcd ABG FED:|
~d3 AGF G2A|~d3 def gfe|1 ded AGF G2A|B^cd ABG FED:|2 agf gfe fed|Bcd ABG FED||
